; generated by Slic3r 1.1.7 on 2016-04-30 at 10:58:05

; perimeters extrusion width = 0.42mm
; infill extrusion width = 0.42mm
; solid infill extrusion width = 0.42mm
; top infill extrusion width = 0.44mm
; support material extrusion width = 0.42mm

G21 ; set units to millimeters
M107
M104 S230 ; set temperature
G28 ; home all axes
G1 Z20 F5000 ; lift nozzle
M109 S230 ; wait for temperature to be reached
G90 ; use absolute coordinates
G92 E0
M82 ; use absolute distances for extrusion
G1 F1800.000 E-3.00000
G92 E0
G1 Z0.300 F7800.000
G1 X52.168 Y37.619 F7800.000
G1 E3.00000 F1800.000
G1 X52.933 Y36.707 E3.06174 F1080.000
G1 X55.707 Y33.933 E3.26510
G1 X56.619 Y33.168 E3.32684
G1 X59.832 Y30.918 E3.53019
G1 X60.863 Y30.323 E3.59193
G1 X64.417 Y28.666 E3.79529
G1 X65.536 Y28.258 E3.85703
G1 X65.726 Y28.208 E3.86720
G1 X69.325 Y27.243 E4.06038
G1 X70.497 Y27.036 E4.12212
G1 X74.405 Y26.695 E4.32548
G1 X75.595 Y26.695 E4.38722
G1 X79.502 Y27.036 E4.59057
G1 X80.675 Y27.243 E4.65232 F1080.000
G1 X84.464 Y28.258 E4.85567
G1 X85.583 Y28.666 E4.91741
G1 X89.137 Y30.323 E5.12077
G1 X90.168 Y30.918 E5.18251
G1 X93.381 Y33.168 E5.38586
G1 X94.293 Y33.933 E5.44760
G1 X97.067 Y36.707 E5.65096
G1 X97.832 Y37.619 E5.71270
G1 X100.082 Y40.832 E5.91605
G1 X100.677 Y41.863 E5.97779
G1 X102.334 Y45.417 E6.18115
G1 X102.742 Y46.536 E6.24289
G1 X103.757 Y50.325 E6.44624
G1 X103.964 Y51.498 E6.50799
G1 X104.305 Y55.405 E6.71134
G1 X104.305 Y56.595 E6.77308
G1 X103.964 Y60.502 E6.97644
G1 X103.757 Y61.675 E7.03818
G1 X102.742 Y65.464 E7.24153
G1 X102.334 Y66.583 E7.30327
G1 X100.677 Y70.137 E7.50663
G1 X100.082 Y71.168 E7.56837
G1 X97.832 Y74.381 E7.77172
G1 X97.067 Y75.293 E7.83346
G1 X94.293 Y78.067 E8.03682
G1 X93.381 Y78.832 E8.09856
G1 X90.168 Y81.082 E8.30191
G1 X89.137 Y81.677 E8.36366
G1 X85.583 Y83.334 E8.56701
G1 X84.464 Y83.742 E8.62875
G1 X80.675 Y84.757 E8.83211
G1 X79.502 Y84.964 E8.89385
G1 X75.595 Y85.305 E9.09720
G1 X74.405 Y85.305 E9.15894
G1 X70.498 Y84.964 E9.36230
G1 X69.325 Y84.757 E9.42404
G1 X65.536 Y83.742 E9.62739
G1 X64.417 Y83.334 E9.68913
G1 X60.863 Y81.677 E9.89249
G1 X59.832 Y81.082 E9.95423
G1 X56.619 Y78.832 E10.15758
G1 X55.707 Y78.067 E10.21933
G1 X52.933 Y75.293 E10.42268
G1 X52.168 Y74.381 E10.48442
G1 X49.918 Y71.168 E10.68778
G1 X49.323 Y70.137 E10.74952
G1 X47.666 Y66.583 E10.95287
G1 X47.258 Y65.464 E11.01461
G1 X46.243 Y61.675 E11.21797
G1 X46.036 Y60.503 E11.27971
G1 X45.695 Y56.595 E11.48306
G1 X45.695 Y55.405 E11.54480
G1 X46.036 Y51.498 E11.74816
G1 X46.243 Y50.325 E11.80990
G1 X47.258 Y46.536 E12.01325
G1 X47.666 Y45.418 E12.07499
G1 X49.323 Y41.863 E12.27835
G1 X49.918 Y40.832 E12.34009
G1 X52.134 Y37.668 E12.54033
G1 X52.564 Y37.908 F7800.000
G1 X53.227 Y37.001 E12.59862 F1080.000
G1 X56.857 Y33.509 E12.85979
G1 X61.039 Y30.700 E13.12096
G1 X65.644 Y28.660 E13.38212
G1 X70.534 Y27.451 E13.64329
G1 X70.729 Y27.433 E13.65346
G1 X75.559 Y27.109 E13.90446
G1 X80.568 Y27.645 E14.16563
G1 X85.407 Y29.042 E14.42679 F1080.000
G1 X89.930 Y31.259 E14.68796
G1 X93.999 Y34.227 E14.94913
G1 X97.491 Y37.857 E15.21029
G1 X100.300 Y42.039 E15.47146
G1 X102.340 Y46.644 E15.73263
G1 X103.549 Y51.534 E15.99379
G1 X103.891 Y56.559 E16.25496
G1 X103.355 Y61.568 E16.51613
G1 X101.958 Y66.407 E16.77729
G1 X99.741 Y70.930 E17.03846
G1 X96.773 Y74.999 E17.29963
G1 X93.143 Y78.491 E17.56079
G1 X88.961 Y81.300 E17.82196
G1 X84.356 Y83.340 E18.08313
G1 X79.466 Y84.549 E18.34429
G1 X74.441 Y84.891 E18.60546
G1 X69.432 Y84.355 E18.86663
G1 X64.593 Y82.958 E19.12779
G1 X60.070 Y80.741 E19.38896
G1 X56.001 Y77.773 E19.65013
G1 X52.509 Y74.143 E19.91129
G1 X49.700 Y69.961 E20.17246
G1 X47.660 Y65.356 E20.43363
G1 X46.451 Y60.466 E20.69479
G1 X46.109 Y55.441 E20.95596
G1 X46.645 Y50.432 E21.21713
G1 X48.042 Y45.593 E21.47829
G1 X50.259 Y41.070 E21.73946
G1 X52.529 Y37.957 E21.93923
G1 F1800.000 E18.93923
G92 E0
G1 X80.128 Y69.999 F7800.000
G1 E3.00000 F1800.000
G1 X80.050 Y70.890 E3.04635 F450.000
G1 X79.819 Y71.753 E3.09270
G1 X79.441 Y72.563 E3.13904
G1 X78.928 Y73.296 E3.18539
G1 X78.296 Y73.928 E3.23174
G1 X77.564 Y74.440 E3.27809
G1 X76.754 Y74.818 E3.32443
G1 X75.890 Y75.049 E3.37078
G1 X75.000 Y75.127 E3.41713
G1 X74.110 Y75.049 E3.46347
G1 X73.246 Y74.818 E3.50982
G1 X72.436 Y74.440 E3.55617
G1 X71.704 Y73.928 E3.60252
G1 X71.072 Y73.296 E3.64886
G1 X70.559 Y72.563 E3.69521
G1 X70.181 Y71.753 E3.74156
G1 X69.950 Y70.890 E3.78791
G1 X69.880 Y70.093 E3.82938
G1 X69.872 Y69.999 E3.83426
G1 X69.950 Y69.109 E3.88060
G1 X70.181 Y68.245 E3.92695
G1 X70.559 Y67.435 E3.97330
G1 X71.072 Y66.703 E4.01965
G1 X71.704 Y66.071 E4.06599
G1 X72.436 Y65.558 E4.11234
G1 X73.246 Y65.180 E4.15869
G1 X74.110 Y64.949 E4.20504
G1 X75.000 Y64.871 E4.25138
G1 X75.797 Y64.941 E4.29286
G1 X75.890 Y64.949 E4.29773 F450.000
G1 X76.754 Y65.180 E4.34408
G1 X77.564 Y65.558 E4.39042
G1 X78.296 Y66.071 E4.43677
G1 X78.928 Y66.703 E4.48312
G1 X79.441 Y67.435 E4.52947
G1 X79.819 Y68.245 E4.57581
G1 X80.050 Y69.109 E4.62216
G1 X80.123 Y69.939 E4.66540
G1 X79.711 Y69.999 F7800.000
G1 X79.639 Y70.817 E4.70797 F270.000
G1 X79.427 Y71.610 E4.75055
G1 X79.080 Y72.355 E4.79313
G1 X78.609 Y73.027 E4.83570
G1 X78.028 Y73.608 E4.87828
G1 X77.355 Y74.079 E4.92085
G1 X76.611 Y74.426 E4.96343
G1 X75.818 Y74.639 E5.00601
G1 X75.000 Y74.710 E5.04858
G1 X74.182 Y74.639 E5.09116
G1 X73.389 Y74.426 E5.13373
G1 X72.645 Y74.079 E5.17631
G1 X71.972 Y73.608 E5.21889
G1 X71.391 Y73.027 E5.26146
G1 X70.920 Y72.355 E5.30404
G1 X70.573 Y71.610 E5.34661
G1 X70.376 Y70.873 E5.38620
G1 X70.289 Y69.999 E5.43172
G1 X70.361 Y69.181 E5.47430
G1 X70.573 Y68.388 E5.51687
G1 X70.920 Y67.644 E5.55945
G1 X71.391 Y66.971 E5.60203
G1 X71.972 Y66.391 E5.64460
G1 X72.645 Y65.920 E5.68718
G1 X73.389 Y65.573 E5.72975
G1 X74.182 Y65.360 E5.77233
G1 X74.943 Y65.293 E5.81192
G1 X75.818 Y65.360 E5.85744 F270.000
G1 X76.611 Y65.573 E5.90002
G1 X77.355 Y65.920 E5.94259
G1 X78.028 Y66.391 E5.98517
G1 X78.609 Y66.971 E6.02774
G1 X79.080 Y67.644 E6.07032
G1 X79.427 Y68.388 E6.11290
G1 X79.639 Y69.181 E6.15547
G1 X79.706 Y69.939 E6.19494
G1 F1800.000 E3.19494
G92 E0
G1 X74.847 Y64.905 F7800.000
G1 X81.535 Y76.806 F7800.000
G1 E3.00000 F1800.000
G1 X78.798 Y77.540 E3.14690 F450.000
G1 X75.000 Y77.872 E3.34458
G1 X71.202 Y77.540 E3.54226
G1 X67.519 Y76.553 E3.73993
G1 X64.064 Y74.942 E3.93761
G1 X60.941 Y72.755 E4.13529
G1 X58.245 Y70.059 E4.33297
G1 X58.164 Y69.943 E4.34030
G1 X56.058 Y66.936 E4.53064
G1 X54.447 Y63.481 E4.72832
G1 X53.460 Y59.798 E4.92600
G1 X53.128 Y56.000 E5.12367
G1 X53.460 Y52.202 E5.32135
G1 X53.497 Y52.065 E5.32868
G1 X54.447 Y48.519 E5.51903
G1 X56.058 Y45.064 E5.71671
G1 X58.245 Y41.941 E5.91438
G1 X60.941 Y39.245 E6.11206
G1 X64.064 Y37.058 E6.30974
G1 X67.519 Y35.447 E6.50741
G1 X71.202 Y34.460 E6.70509
G1 X71.343 Y34.448 E6.71242
G1 X75.000 Y34.128 E6.90277 F450.000
G1 X78.798 Y34.460 E7.10044
G1 X82.481 Y35.447 E7.29812
G1 X85.936 Y37.058 E7.49580
G1 X89.059 Y39.245 E7.69348
G1 X91.755 Y41.941 E7.89115
G1 X93.942 Y45.064 E8.08883
G1 X95.553 Y48.519 E8.28651
G1 X96.540 Y52.202 E8.48418
G1 X96.872 Y56.000 E8.68186
G1 X96.540 Y59.798 E8.87954
G1 X95.553 Y63.481 E9.07721
G1 X93.942 Y66.936 E9.27489
G1 X91.755 Y70.059 E9.47257
G1 X89.059 Y72.755 E9.67025
G1 X85.936 Y74.942 E9.86792
G1 X82.481 Y76.553 E10.06560
G1 X81.593 Y76.791 E10.11326
G1 X81.642 Y77.208 F7800.000
G1 X78.870 Y77.951 E10.26205 F270.000
G1 X75.000 Y78.289 E10.46350
G1 X71.130 Y77.951 E10.66495
G1 X67.377 Y76.945 E10.86640
G1 X63.855 Y75.303 E11.06785
G1 X60.673 Y73.075 E11.26929
G1 X57.925 Y70.327 E11.47074
G1 X57.824 Y70.182 E11.47996
G1 X55.697 Y67.145 E11.67219
G1 X54.055 Y63.623 E11.87364
G1 X53.049 Y59.870 E12.07509
G1 X52.711 Y56.000 E12.27654
G1 X53.049 Y52.130 E12.47799
G1 X53.095 Y51.958 E12.48720
G1 X54.055 Y48.377 E12.67943
G1 X55.697 Y44.855 E12.88088
G1 X57.925 Y41.673 E13.08233
G1 X60.673 Y38.925 E13.28378
G1 X63.855 Y36.697 E13.48523
G1 X67.377 Y35.055 E13.68668
G1 X71.130 Y34.049 E13.88813
G1 X75.000 Y33.711 E14.08957
G1 X75.177 Y33.726 E14.09879
G1 X78.870 Y34.049 E14.29102 F270.000
G1 X82.623 Y35.055 E14.49247
G1 X86.145 Y36.697 E14.69392
G1 X89.327 Y38.925 E14.89537
G1 X92.075 Y41.673 E15.09682
G1 X94.303 Y44.855 E15.29827
G1 X95.945 Y48.377 E15.49971
G1 X96.951 Y52.130 E15.70116
G1 X97.289 Y56.000 E15.90261
G1 X96.951 Y59.870 E16.10406
G1 X95.945 Y63.623 E16.30551
G1 X94.303 Y67.145 E16.50696
G1 X92.075 Y70.327 E16.70841
G1 X89.327 Y73.075 E16.90985
G1 X86.145 Y75.303 E17.11130
G1 X82.623 Y76.945 E17.31275
G1 X81.700 Y77.192 E17.36230
G1 X75.523 Y33.927 F7800.000
G1 X83.051 Y36.024 F7800.000
G1 X94.976 Y47.949 E18.23675 F900.000
G1 X95.373 Y48.936 F7800.000
G1 X82.064 Y35.627 E19.21264 F900.000
G1 X81.258 Y35.411 E19.25590
G1 X95.589 Y49.742 E20.30673
G1 X95.805 Y50.548 E20.35000
G1 X80.452 Y35.195 E21.47577
G1 X79.646 Y34.979 E21.51903
G1 X96.021 Y51.354 E22.71974
G1 X96.237 Y52.160 E22.76301
G1 X78.840 Y34.763 E24.03865
G1 X78.175 Y34.688 E24.07333
G1 X96.312 Y52.825 E25.40318
G1 X96.368 Y53.471 E25.43684
G1 X77.529 Y34.632 E26.81826
G1 X76.882 Y34.575 E26.85191
G1 X96.425 Y54.118 E28.28489
G1 X96.481 Y54.764 E28.31854
G1 X76.236 Y34.519 E29.80309
G1 X75.589 Y34.462 E29.83674
G1 X96.538 Y55.411 E31.37284
G1 X96.585 Y56.048 E31.40598
G1 X74.952 Y34.415 E32.99229
G1 X74.409 Y34.462 E33.02053
G1 X96.538 Y56.591 E34.64314
G1 X96.490 Y57.134 E34.67138
G1 X73.866 Y34.510 E36.33030
G1 X73.324 Y34.557 E36.35854
G1 X96.443 Y57.676 E38.05376
G1 X96.395 Y58.219 E38.08200
G1 X72.781 Y34.605 E39.81352
G1 X72.239 Y34.652 E39.84176
G1 X96.348 Y58.761 E41.60959
G1 X96.300 Y59.304 E41.63783
G1 X71.696 Y34.700 E43.44197
G1 X71.167 Y34.761 E43.46956
G1 X96.239 Y59.833 E45.30797
G1 X96.114 Y60.298 E45.33295
G1 X70.702 Y34.886 E47.19633
G1 X70.237 Y35.010 E47.22131
G1 X95.990 Y60.763 E49.10968
G1 X95.865 Y61.229 E49.13466
G1 X69.771 Y35.135 E51.04800
G1 X69.306 Y35.260 E51.07298
G1 X95.740 Y61.694 E53.01130
G1 X95.616 Y62.159 E53.03628
G1 X68.841 Y35.384 E54.99959
G1 X68.375 Y35.509 E55.02457
G1 X95.491 Y62.625 E57.01285
G1 X95.366 Y63.090 E57.03783
G1 X67.910 Y35.634 E59.05109
G1 X67.468 Y35.782 E59.07527
G1 X95.218 Y63.532 E61.11011
G1 X95.031 Y63.935 E61.13313
G1 X67.065 Y35.969 E63.18372
G1 X66.663 Y36.157 E63.20674
G1 X94.843 Y64.337 E65.27308
G1 X94.655 Y64.739 E65.29610
G1 X66.261 Y36.345 E67.37819
G1 X65.858 Y36.532 E67.40121
G1 X94.468 Y65.142 E69.49904
G1 X94.280 Y65.544 E69.52206
G1 X65.456 Y36.720 E71.63564
G1 X65.053 Y36.908 E71.65867
G1 X94.092 Y65.947 E73.78799
G1 X93.905 Y66.349 E73.81102
G1 X64.651 Y37.095 E75.95609
G1 X64.249 Y37.283 E75.97911
G1 X93.717 Y66.751 E78.13994
G1 X93.480 Y67.104 E78.16198
G1 X63.896 Y37.520 E80.33131
G1 X63.548 Y37.763 E80.35327
G1 X93.237 Y67.452 E82.53023
G1 X92.994 Y67.799 E82.55220
G1 X63.201 Y38.006 E84.73678
G1 X62.854 Y38.249 E84.75874
G1 X92.751 Y68.146 E86.95096
G1 X92.508 Y68.493 E86.97292
G1 X62.507 Y38.492 E89.17276
G1 X62.160 Y38.735 E89.19473
G1 X92.265 Y68.840 E91.40220
G1 X92.022 Y69.187 E91.42417
G1 X61.813 Y38.978 E93.63927
G1 X61.466 Y39.221 E93.66123
G1 X91.779 Y69.534 E95.88396
G1 X91.521 Y69.866 E95.90577
G1 X61.134 Y39.479 E98.13397
G1 X60.839 Y39.774 E98.15561
G1 X91.226 Y70.161 E100.38381
G1 X90.931 Y70.456 E100.40545
G1 X60.544 Y40.069 E102.63366
G1 X60.249 Y40.364 E102.65529
G1 X90.636 Y70.751 E104.88350
G1 X90.341 Y71.046 E104.90513
G1 X59.954 Y40.659 E107.13334
G1 X59.659 Y40.954 E107.15497
G1 X90.046 Y71.341 E109.38318
G1 X89.751 Y71.636 E109.40481
G1 X59.364 Y41.249 E111.63302
G1 X59.069 Y41.544 E111.65465
G1 X89.456 Y71.931 E113.88286
G1 X89.161 Y72.226 E113.90449
G1 X58.774 Y41.839 E116.13270
G1 X58.479 Y42.134 E116.15433
G1 X88.866 Y72.521 E118.38254
G1 X88.534 Y72.779 E118.40434
G1 X58.221 Y42.466 E120.62707
G1 X57.978 Y42.813 E120.64904
G1 X88.187 Y73.022 E122.86414
G1 X87.840 Y73.265 E122.88610
G1 X57.735 Y43.160 E125.09357
G1 X57.492 Y43.507 E125.11554
G1 X87.493 Y73.508 E127.31538
G1 X87.146 Y73.751 E127.33735
G1 X57.249 Y43.854 E129.52956
G1 X57.006 Y44.201 E129.55153
G1 X86.799 Y73.994 E131.73611
G1 X86.452 Y74.237 E131.75808
G1 X79.841 Y67.626 E132.24283
G1 X80.198 Y68.574 F7800.000
G1 X86.104 Y74.480 E132.67593 F900.000
G1 X85.751 Y74.717 E132.69797
G1 X80.351 Y69.316 E133.09398
G1 X80.407 Y69.963 E133.12764
G1 X85.349 Y74.905 E133.49000
G1 X84.947 Y75.092 E133.51302
G1 X80.366 Y70.512 E133.84892
G1 X80.302 Y71.038 E133.87640
G1 X84.544 Y75.280 E134.18748
G1 X84.142 Y75.468 E134.21050
G1 X80.177 Y71.503 E134.50122
G1 X80.036 Y71.952 E134.52563
G1 X83.739 Y75.655 E134.79717
G1 X83.337 Y75.843 E134.82019
G1 X79.849 Y72.355 E135.07597
G1 X79.654 Y72.750 E135.09881
G1 X82.935 Y76.031 E135.33938
G1 X82.532 Y76.218 E135.36240
G1 X79.411 Y73.097 E135.59128
G1 X79.168 Y73.444 E135.61325
G1 X82.090 Y76.366 E135.82752
G1 X81.625 Y76.491 E135.85250
G1 X78.878 Y73.744 E136.05392
G1 X78.583 Y74.039 E136.07555
G1 X81.159 Y76.616 E136.26448
G1 X80.694 Y76.740 E136.28946
G1 X78.254 Y74.301 E136.46836
G1 X77.907 Y74.544 E136.49033
G1 X80.229 Y76.865 E136.66055
G1 X79.763 Y76.990 E136.68553
G1 X77.537 Y74.763 E136.84877
G1 X77.135 Y74.951 E136.87179
G1 X79.298 Y77.114 E137.03042
G1 X78.833 Y77.239 E137.05540
G1 X76.714 Y75.120 E137.21077
G1 X76.248 Y75.245 E137.23575
G1 X78.304 Y77.300 E137.38648
G1 X77.761 Y77.348 E137.41472
G1 X75.757 Y75.344 E137.56168
G1 X75.214 Y75.391 E137.58992
G1 X77.219 Y77.395 E137.73689
G1 X76.676 Y77.443 E137.76513
G1 X74.609 Y75.376 E137.91671
G1 X73.938 Y75.295 E137.95175
G1 X76.134 Y77.490 E138.11273
G1 X75.591 Y77.538 E138.14097
G1 X73.126 Y75.072 E138.32175
G1 X71.806 Y74.342 F7800.000
G1 X75.048 Y77.585 E138.55954 F900.000
G1 X74.411 Y77.538 E138.59268
G1 X53.462 Y56.589 E140.12878
G1 X53.415 Y55.952 E140.16192
G1 X70.657 Y73.194 E141.42622
G1 X69.927 Y71.874 F7800.000
G1 X53.462 Y55.409 E142.63351 F900.000
G1 X53.510 Y54.866 E142.66175
G1 X69.704 Y71.061 E143.84925
G1 X69.624 Y70.390 E143.88428
G1 X53.557 Y54.324 E145.06238
G1 X53.605 Y53.781 E145.09062
G1 X69.608 Y69.785 E146.26410
G1 X69.656 Y69.242 E146.29234
G1 X53.652 Y53.239 E147.46582
G1 X53.700 Y52.696 E147.49406
G1 X69.754 Y68.751 E148.67129
G1 X69.879 Y68.286 E148.69627
G1 X53.761 Y52.167 E149.87815
G1 X53.886 Y51.702 E149.90313
G1 X70.048 Y67.865 E151.08827
G1 X70.236 Y67.462 E151.11130
G1 X54.010 Y51.237 E152.30105
G1 X54.135 Y50.771 E152.32603
G1 X70.456 Y67.092 E153.52277
G1 X70.699 Y66.745 E153.54473
G1 X54.260 Y50.306 E154.75014
G1 X54.384 Y49.841 E154.77512
G1 X70.960 Y66.416 E155.99057
G1 X71.255 Y66.121 E156.01220
G1 X54.509 Y49.375 E157.24013
G1 X54.634 Y48.910 E157.26511
G1 X71.555 Y65.831 E158.50590
G1 X71.902 Y65.588 E158.52786
G1 X54.782 Y48.468 E159.78325
G1 X54.969 Y48.065 E159.80627
G1 X72.249 Y65.345 E161.07335
G1 X72.645 Y65.150 E161.09620
G1 X55.157 Y47.663 E162.37849
G1 X55.345 Y47.261 E162.40151
G1 X73.047 Y64.963 E163.69956
G1 X73.496 Y64.822 E163.72397
G1 X55.532 Y46.858 E165.04120
G1 X55.720 Y46.456 E165.06422
G1 X73.962 Y64.697 E166.40181
G1 X74.488 Y64.634 E166.42929
G1 X55.908 Y46.053 E167.79171
G1 X56.095 Y45.651 E167.81473
G1 X75.036 Y64.592 E169.20360
G1 X75.683 Y64.648 E169.23725
G1 X56.283 Y45.249 E170.65978
G1 X56.520 Y44.896 E170.68183
G1 X76.426 Y64.801 E172.14143
G1 X77.373 Y65.159 F7800.000
G1 X56.763 Y44.548 E173.65270 F900.000
G1 X53.519 Y57.236 F7800.000
G1 X73.764 Y77.481 E175.13724 F900.000
G1 X73.118 Y77.425 E175.17090
G1 X53.575 Y57.882 E176.60387
G1 X53.632 Y58.529 E176.63753
G1 X72.471 Y77.368 E178.01895
G1 X71.825 Y77.312 E178.05260
G1 X53.688 Y59.175 E179.38245
G1 X53.763 Y59.840 E179.41713
G1 X71.160 Y77.237 E180.69278
G1 X70.354 Y77.021 E180.73605
G1 X53.979 Y60.646 E181.93675
G1 X54.195 Y61.452 E181.98002
G1 X69.548 Y76.805 E183.10579
G1 X68.742 Y76.589 E183.14905
G1 X54.411 Y62.258 E184.19988
G1 X54.627 Y63.064 E184.24315
G1 X67.936 Y76.373 E185.21904
G1 X66.949 Y75.976 F7800.000
G1 X55.024 Y64.051 E186.09349 F900.000
G1 X55.539 Y65.157 F7800.000
G1 X65.843 Y75.461 E186.84906 F900.000
G1 X64.738 Y74.945 F7800.000
G1 X56.055 Y66.262 E187.48577 F900.000
